svgs/trueskate.svg

<svg xmlns="http://www.w3.org/2000/svg" viewBox="0 0 192 192"><path d="M169.614 66.867c1.488-2.134 4.09-6.42 5.472-11.963 1.842-7.392 1.8-18.44-8.86-29.095-10.659-10.653-21.712-10.695-29.107-8.854-5.548 1.381-9.837 3.984-11.971 5.47l-5.079-5.076a2.609 2.609 0 0 0-3.689 0L96.997 36.722a2.605 2.605 0 0 0 0 3.69l4.884 4.882-28.306 28.291-28.308 28.293-4.886-4.884a2.61 2.61 0 0 0-3.689 0l-19.384 19.374a2.608 2.608 0 0 0 0 3.69l5.078 5.075c-1.488 2.134-4.09 6.42-5.472 11.963-1.842 7.392-1.8 18.44 8.86 29.094 7.551 7.547 15.297 9.769 21.803 9.768 2.678 0 5.147-.376 7.304-.913 5.548-1.381 9.837-3.983 11.971-5.47l5.079 5.076c.509.51 1.177.764 1.844.764.668 0 1.335-.255 1.845-.764l19.383-19.373a2.607 2.607 0 0 0 0-3.69l-4.884-4.882 18.883-18.873a2.608 2.608 0 1 0-3.688-3.691l-18.886 18.875-4.885-4.883a2.608 2.608 0 0 0-3.689 0l-5.291 5.287-24.009-23.997 5.288-5.285a2.607 2.607 0 0 0 0-3.691l-4.884-4.881 28.305-28.291 28.308-28.292 4.886 4.883c.51.509 1.177.763 1.845.763a2.6 2.6 0 0 0 1.844-.763l4.886-4.883 7.549 7.545a2.61 2.61 0 0 0 3.689-3.691l-7.548-7.543.87-.869 1.094-1.094 24.01 23.997-.272.272-1.692 1.69-8.386-8.381a2.608 2.608 0 1 0-3.688 3.69l8.384 8.38-4.885 4.881a2.61 2.61 0 0 0 0 3.691l4.884 4.881-28.305 28.292a2.607 2.607 0 0 0 1.844 4.454c.667 0 1.335-.255 1.844-.764l28.308-28.292 4.886 4.883a2.6 2.6 0 0 0 1.845.764c.667 0 1.334-.255 1.844-.764l19.384-19.373a2.607 2.607 0 0 0 0-3.69ZM38.537 102.528l9.77 9.765-5.285 5.283-.003.002-5.654 5.651-.001.001-4.75 4.748-9.771-9.765Zm41.161 41.139 9.77 9.765-15.693 15.685-9.77-9.765Zm-10.825 3.442-1.964 1.963-8.386-8.382a2.608 2.608 0 1 0-3.688 3.69l8.384 8.38-4.749 4.747a2.607 2.607 0 0 0 0 3.69l4.622 4.62c-1.954 1.27-5.301 3.126-9.472 4.164-8.857 2.205-16.985-.312-24.158-7.482-14.01-14.002-6.688-28.523-3.328-33.62l4.636 4.633a2.6 2.6 0 0 0 1.844.763c.668 0 1.335-.254 1.844-.763l4.751-4.749 7.549 7.545a2.61 2.61 0 0 0 3.689-3.69l-7.548-7.543 1.964-1.962Zm53.97-109.312-.001.001-3.245 3.243-7.295 7.292-9.77-9.765 15.693-15.685 9.77 9.765Zm5.534 1.846 5.153-5.15a2.607 2.607 0 0 0 0-3.691l-4.633-4.63c5.102-3.359 19.631-10.674 33.64 3.327 14.013 14.005 6.685 28.529 3.329 33.621l-4.636-4.633a2.61 2.61 0 0 0-3.689 0l-5.155 5.153Zm25.086 49.829-9.77-9.765 4.883-4.881.001-.001 5.654-5.651 5.155-5.152 9.771 9.765Z"/></svg>

<svg
    xmlns="http://www.w3.org/2000/svg"
    viewBox="0 0 192 192"
    id="vector">
    <path
        id="path"
        d="M 169.614 66.867 C 171.102 64.733 173.704 60.447 175.086 54.904 C 176.928 47.512 176.886 36.464 166.226 25.809 C 155.567 15.156 144.514 15.114 137.119 16.955 C 131.571 18.336 127.282 20.939 125.148 22.425 L 120.069 17.349 C 119.051 16.331 117.399 16.33 116.38 17.349 L 96.997 36.722 C 96.507 37.211 96.232 37.874 96.232 38.567 C 96.232 39.259 96.507 39.923 96.997 40.412 L 101.881 45.294 L 73.575 73.585 L 45.267 101.878 L 40.381 96.994 C 39.362 95.976 37.711 95.976 36.692 96.994 L 17.308 116.368 C 16.819 116.857 16.544 117.52 16.544 118.213 C 16.544 118.905 16.819 119.569 17.308 120.058 L 22.386 125.133 C 20.898 127.267 18.296 131.553 16.914 137.096 C 15.072 144.488 15.114 155.536 25.774 166.19 C 33.325 173.737 41.071 175.959 47.577 175.958 C 50.255 175.958 52.724 175.582 54.881 175.045 C 60.429 173.664 64.718 171.062 66.852 169.575 L 71.931 174.651 C 72.44 175.161 73.108 175.415 73.775 175.415 C 74.443 175.415 75.11 175.16 75.62 174.651 L 95.003 155.278 C 95.493 154.789 95.768 154.125 95.768 153.433 C 95.768 152.74 95.493 152.077 95.003 151.588 L 90.119 146.706 L 109.002 127.833 C 110.022 126.814 110.022 125.162 109.003 124.143 C 107.985 123.123 106.333 123.123 105.314 124.142 L 86.428 143.017 L 81.543 138.134 C 80.524 137.115 78.873 137.115 77.854 138.134 L 72.563 143.421 L 48.554 119.424 L 53.842 114.139 C 54.332 113.65 54.607 112.986 54.607 112.293 C 54.607 111.601 54.332 110.938 53.842 110.448 L 48.958 105.567 L 77.263 77.276 L 105.571 48.984 L 110.457 53.867 C 110.967 54.376 111.634 54.63 112.302 54.63 C 112.969 54.63 113.637 54.376 114.146 53.867 L 119.032 48.984 L 126.581 56.529 C 127.6 57.547 129.252 57.546 130.271 56.528 C 131.289 55.509 131.289 53.856 130.27 52.838 L 122.722 45.295 L 123.592 44.426 L 124.686 43.332 L 148.696 67.329 L 148.424 67.601 L 146.732 69.291 L 138.346 60.91 C 137.327 59.891 135.675 59.892 134.657 60.911 C 133.638 61.93 133.639 63.582 134.658 64.6 L 143.042 72.98 L 138.157 77.861 C 137.668 78.35 137.393 79.014 137.393 79.707 C 137.393 80.399 137.668 81.063 138.157 81.552 L 143.041 86.433 L 114.736 114.725 C 113.716 115.743 113.716 117.395 114.735 118.414 C 115.244 118.924 115.912 119.179 116.58 119.179 C 117.247 119.179 117.915 118.924 118.424 118.415 L 146.732 90.123 L 151.618 95.006 C 152.128 95.516 152.795 95.77 153.463 95.77 C 154.13 95.77 154.797 95.515 155.307 95.006 L 174.691 75.633 C 175.181 75.144 175.456 74.48 175.456 73.788 C 175.456 73.095 175.181 72.432 174.691 71.943 Z M 38.537 102.528 L 48.307 112.293 L 43.022 117.576 C 43.021 117.576 43.02 117.577 43.019 117.578 L 37.365 123.229 L 37.364 123.23 L 32.614 127.978 L 22.843 118.213 Z M 79.698 143.667 L 89.468 153.432 L 73.775 169.117 L 64.005 159.352 Z M 68.873 147.109 L 66.909 149.072 L 58.523 140.69 C 57.504 139.671 55.852 139.672 54.834 140.691 C 53.815 141.71 53.816 143.362 54.835 144.38 L 63.219 152.76 L 58.47 157.507 C 57.98 157.996 57.705 158.66 57.705 159.352 C 57.705 160.044 57.98 160.708 58.47 161.197 L 63.092 165.817 C 61.138 167.087 57.791 168.943 53.62 169.981 C 44.763 172.186 36.635 169.669 29.462 162.499 C 15.452 148.497 22.774 133.976 26.134 128.879 L 30.77 133.512 C 31.279 134.021 31.947 134.275 32.614 134.275 C 33.282 134.275 33.949 134.021 34.458 133.512 L 39.209 128.763 L 46.758 136.308 C 47.777 137.327 49.429 137.326 50.448 136.307 C 51.466 135.288 51.466 133.636 50.447 132.618 L 42.899 125.075 L 44.863 123.113 Z M 122.843 37.797 L 122.842 37.798 L 119.597 41.041 L 112.302 48.333 L 102.532 38.568 L 118.225 22.883 L 127.995 32.648 Z M 128.377 39.643 L 133.53 34.493 C 134.02 34.004 134.295 33.34 134.295 32.648 C 134.295 31.955 134.02 31.292 133.53 30.802 L 128.897 26.172 C 133.999 22.813 148.528 15.498 162.537 29.499 C 176.55 43.504 169.222 58.028 165.866 63.12 L 161.23 58.487 C 160.211 57.469 158.56 57.469 157.541 58.487 L 152.386 63.64 Z M 153.463 89.472 L 143.693 79.707 L 148.576 74.826 C 148.576 74.826 148.577 74.826 148.577 74.825 L 154.231 69.174 L 159.386 64.022 L 169.157 73.787 Z"
        fill="#000000"
        stroke-width="12"/>
</svg>
